lib/flags/pg-papua-new-guinea.svg

<svg xmlns="http://www.w3.org/2000/svg" fill="none" aria-hidden="true" viewBox="0 0 42 30"><g id="Country=PG - Papua New Guinea, Size=sm (36x24)" filter="url(#filter0_dd_91_25903)"><g clip-path="url(#clip0_91_25903)"><g id="flag"><mask id="mask0_91_25903" width="36" height="24" x="3" y="2" maskUnits="userSpaceOnUse" style="mask-type:alpha"><rect id="mask" width="36" height="24" x="3" y="2" fill="white"/></mask><g mask="url(#mask0_91_25903)"><g id="contents"><rect id="background" width="36" height="24" x="3" y="2" fill="#E11C1B" rx="2"/><path id="left" fill="#1D1D1D" fill-rule="evenodd" d="M3 2L39 26H3V2Z" clip-rule="evenodd"/><g id="mark"><path id="stars" fill="#EEEEF6" fill-rule="evenodd" d="M10.9688 20.2687H12.467L13.1796 18.7754L14.0172 20.2586L15.5522 20.3332L14.2403 21.6025L14.9139 23.1316L13.2464 22.2804L11.7065 23.1392L12.2874 21.6545L10.9688 20.2687Z" clip-rule="evenodd"/><path id="stars_2" fill="#EEEEF6" fill-rule="evenodd" d="M6.46875 16.2687H7.96705L8.67961 14.7754L9.51715 16.2586L11.0522 16.3332L9.74033 17.6025L10.4139 19.1316L8.74639 18.2804L7.20651 19.1392L7.78739 17.6545L6.46875 16.2687Z" clip-rule="evenodd"/><path id="stars_3" fill="#EEEEF6" fill-rule="evenodd" d="M10.9688 14.2687H12.467L13.1796 12.7754L14.0172 14.2586L15.5522 14.3332L14.2403 15.6025L14.9139 17.1316L13.2464 16.2804L11.7065 17.1392L12.2874 15.6545L10.9688 14.2687Z" clip-rule="evenodd"/><path id="stars_4" fill="#EEEEF6" fill-rule="evenodd" d="M13.9253 18.564L14.9552 18.5336L15.327 17.5894L15.7444 18.5285L16.6921 18.6095L15.8387 19.1458L16.5269 20.0956L15.3328 19.6986L14.2979 20.1084L14.8444 19.172L13.9253 18.564Z" clip-rule="evenodd"/><path id="stars_5" fill="#EEEEF6" fill-rule="evenodd" d="M16.1753 16.564L17.2052 16.5336L17.577 15.5894L17.9944 16.5285L18.9421 16.6095L18.0887 17.1458L18.7769 18.0956L17.5828 17.6986L16.5479 18.1084L17.0944 17.172L16.1753 16.564Z" clip-rule="evenodd"/><path id="Path 197" fill="#FBCD17" fill-rule="evenodd" d="M26.7194 4C26.7194 4 23.2445 4.6162 24.2197 8.90985H23.724C23.724 8.90985 23.7646 8.6858 23.2879 8.55443C22.8113 8.42306 22.9067 8.47238 22.6608 8.55443C22.4148 8.63648 20.9184 8.55443 20.9184 8.55443V8.71879L21.9773 9.12531C21.9773 9.12531 21.9512 9.4638 22.394 9.65137C22.8367 9.83894 23.1581 9.92933 23.1581 9.92933C23.1581 9.92933 23.2236 10.3029 22.8088 10.3029C22.394 10.3029 20.7255 9.82211 20.1321 11.0032C19.5387 12.1844 18.75 13.051 18.75 13.051H19.6398L19.401 13.3147H20.4029L20.1321 13.4514C20.1321 13.4514 21.3715 13.4391 21.4682 13.3147C21.5648 13.1903 21.4682 13.6519 21.4682 13.6519C21.4682 13.6519 22.6689 13.1646 22.7347 13.051L23.2951 13.3927L23.4548 12.8144L24.0561 13.051L24.2197 12.5C24.2197 12.5 25.9208 15.0288 27.211 14.8836V14.4639L28.3884 14.8836L28.5379 14.697C28.5379 14.697 29.9602 15.2125 30.398 15.2603L30.0857 14.697H30.398L30.0857 13.6519H30.398L29.7734 12.8144L29.9484 12.5876L29.8326 12.2896C29.8326 12.2896 32.1225 12.938 32.0192 13.9697C31.916 15.0013 30.8961 15.4176 30.8961 15.4176C30.8961 15.4176 29.9181 15.6839 29.0348 15.6266C29.0348 15.6266 29.736 16.3629 31.2197 16.1134C32.7033 15.8639 33.195 14.5852 33.195 14.5852C33.195 14.5852 33.8753 15.8412 33.3153 16.5016C32.7552 17.162 30.2617 17.6257 30.2617 17.6257C30.2617 17.6257 31.1638 18.0959 32.0192 17.9754C32.8746 17.8549 34.2049 17.1932 34.4628 16.1134C34.7206 15.0336 33.5731 13.0412 33.0532 12.8144L32.8479 12.1231L33.3153 12.2896L32.3563 10.2052L32.8213 10.2957L31.4646 8.79557L31.8381 8.69328L29.9638 7.49566L30.5247 7.36395C30.5247 7.36395 29.1392 6.73985 27.5588 7.49566L27.5738 7.23454L27.1585 7.29695L27.1831 7.00973L27.5958 6.45382L26.9762 6.24159C26.9762 6.24159 27.4771 5.57267 27.4019 5.58186C27.4019 5.58186 26.8436 5.72428 26.8753 5.66459C26.8753 5.66459 27.157 5.01991 27.0829 5.03717C27.0829 5.03717 26.4354 5.2329 26.5312 5.13495L26.7801 4.7411L26.7194 4Z" clip-rule="evenodd"/></g></g></g></g></g></g><defs><filter id="filter0_dd_91_25903" width="42" height="30" x="0" y="0" color-interpolation-filters="sRGB" filterUnits="userSpaceOnUse"><feFlood flood-opacity="0" result="BackgroundImageFix"/><feColorMatrix in="SourceAlpha" result="hardAlpha" values="0 0 0 0 0 0 0 0 0 0 0 0 0 0 0 0 0 0 127 0"/><feOffset dy="1"/><feGaussianBlur stdDeviation="1"/><feColorMatrix values="0 0 0 0 0.0627451 0 0 0 0 0.0941176 0 0 0 0 0.156863 0 0 0 0.06 0"/><feBlend in2="BackgroundImageFix" result="effect1_dropShadow_91_25903"/><feColorMatrix in="SourceAlpha" result="hardAlpha" values="0 0 0 0 0 0 0 0 0 0 0 0 0 0 0 0 0 0 127 0"/><feOffset dy="1"/><feGaussianBlur stdDeviation="1.5"/><feColorMatrix values="0 0 0 0 0.0627451 0 0 0 0 0.0941176 0 0 0 0 0.156863 0 0 0 0.1 0"/><feBlend in2="effect1_dropShadow_91_25903" result="effect2_dropShadow_91_25903"/><feBlend in="SourceGraphic" in2="effect2_dropShadow_91_25903" result="shape"/></filter><clipPath id="clip0_91_25903"><rect width="36" height="24" x="3" y="2" fill="white" rx="2"/></clipPath></defs></svg>

<svg xmlns="http://www.w3.org/2000/svg" fill="none" aria-hidden="true" viewBox="0 0 42 30"><g filter="url(#a)"><g clip-path="url(#b)"><mask id="c" width="36" height="24" x="3" y="2" maskUnits="userSpaceOnUse" style="mask-type:alpha"><path fill="#fff" d="M3 2h36v24H3z"/></mask><g mask="url(#c)"><rect width="36" height="24" x="3" y="2" fill="#E11C1B" rx="2"/><path fill="#1D1D1D" fill-rule="evenodd" d="m3 2 36 24H3V2Z" clip-rule="evenodd"/><g fill-rule="evenodd" clip-rule="evenodd"><path fill="#EEEEF6" d="M10.969 20.269h1.498l.713-1.494.837 1.484 1.535.074-1.312 1.27.674 1.529-1.668-.852-1.54.86.581-1.486-1.318-1.385Zm-4.5-4h1.498l.713-1.494.837 1.484 1.535.074-1.312 1.27.674 1.529-1.668-.852-1.54.86.581-1.486L6.47 16.27Zm4.5-2h1.498l.713-1.494.837 1.484 1.535.074-1.312 1.27.674 1.529-1.668-.852-1.54.86.581-1.486-1.318-1.385Z"/><path fill="#EEEEF6" d="m13.925 18.564 1.03-.03.372-.945.417.94.948.08-.853.537.688.95-1.194-.397-1.035.41.546-.937-.919-.608Zm2.25-2 1.03-.03.372-.945.417.94.948.08-.853.537.688.95-1.194-.397-1.035.41.546-.937-.919-.608Z"/><path fill="#FBCD17" d="M26.72 4s-3.476.616-2.5 4.91h-.496s.04-.224-.436-.356c-.477-.13-.381-.082-.627 0s-1.743 0-1.743 0v.165l1.06.406s-.027.339.416.526c.443.188.764.278.764.278s.066.374-.35.374c-.414 0-2.082-.48-2.676.7-.593 1.181-1.382 2.048-1.382 2.048h.89l-.239.264h1.002l-.27.136s1.239-.012 1.335-.136c.097-.125 0 .337 0 .337s1.2-.487 1.267-.601l.56.342.16-.579.601.237.164-.551s1.7 2.529 2.991 2.384v-.42l1.177.42.15-.187s1.422.516 1.86.563l-.312-.563h.312l-.312-1.045h.312l-.625-.838.175-.226-.115-.298s2.29.648 2.186 1.68c-.103 1.031-1.123 1.448-1.123 1.448s-.978.266-1.861.209c0 0 .701.736 2.185.486 1.483-.25 1.975-1.528 1.975-1.528s.68 1.256.12 1.917c-.56.66-3.053 1.124-3.053 1.124s.902.47 1.757.35c.856-.121 2.186-.783 2.444-1.863s-.89-3.072-1.41-3.299l-.205-.69.467.166-.959-2.085.465.09-1.356-1.5.373-.102-1.874-1.197.56-.132s-1.385-.624-2.965.132l.015-.261-.416.062.025-.287.413-.556-.62-.212s.501-.67.426-.66c0 0-.558.142-.527.083 0 0 .282-.645.208-.628 0 0-.648.196-.552.098l.25-.394L26.718 4Z"/></g></g></g></g><defs><clipPath id="b"><rect width="36" height="24" x="3" y="2" fill="#fff" rx="2"/></clipPath><filter id="a" width="42" height="30" x="0" y="0" color-interpolation-filters="sRGB" filterUnits="userSpaceOnUse"><feFlood flood-opacity="0" result="BackgroundImageFix"/><feColorMatrix in="SourceAlpha" result="hardAlpha" values="0 0 0 0 0 0 0 0 0 0 0 0 0 0 0 0 0 0 127 0"/><feOffset dy="1"/><feGaussianBlur stdDeviation="1"/><feColorMatrix values="0 0 0 0 0.0627451 0 0 0 0 0.0941176 0 0 0 0 0.156863 0 0 0 0.06 0"/><feBlend in2="BackgroundImageFix" result="effect1_dropShadow_91_25903"/><feColorMatrix in="SourceAlpha" result="hardAlpha" values="0 0 0 0 0 0 0 0 0 0 0 0 0 0 0 0 0 0 127 0"/><feOffset dy="1"/><feGaussianBlur stdDeviation="1.5"/><feColorMatrix values="0 0 0 0 0.0627451 0 0 0 0 0.0941176 0 0 0 0 0.156863 0 0 0 0.1 0"/><feBlend in2="effect1_dropShadow_91_25903" result="effect2_dropShadow_91_25903"/><feBlend in="SourceGraphic" in2="effect2_dropShadow_91_25903" result="shape"/></filter></defs></svg>
